images/ICONOS/CONTACTANOS/SUMMANT.svg

<svg width="157" height="23" viewBox="0 0 157 23" fill="none" xmlns="http://www.w3.org/2000/svg">
<path d="M55.744 18.7827C55.744 19.3442 55.6508 19.8696 55.4671 20.3535C55.2833 20.8374 55.022 21.2592 54.683 21.6164C54.344 21.9761 53.9273 22.2607 53.4331 22.4729C52.9388 22.6877 52.3825 22.7938 51.7614 22.7938H44.3216C43.7393 22.7938 43.2011 22.6929 42.7068 22.4885C42.2125 22.284 41.7856 22.0045 41.4285 21.6448C41.0688 21.2851 40.7945 20.8633 40.6004 20.3794C40.4063 19.8954 40.3105 19.3623 40.3105 18.7801V4.59863H45.3696V17.1083C45.3696 17.9209 45.7474 18.3298 46.5031 18.3298H49.4376C50.3097 18.3298 50.7444 17.9028 50.7444 17.0514V4.60122H55.744V18.7827Z" fill="white"/>
<path d="M37.2509 18.4746C37.2509 21.3549 36.0502 22.7963 33.6462 22.7963H20.4098V17.9907H32.2799V13.2316H24.131C21.476 13.2316 20.1484 11.8549 20.1484 9.10138V4.47948C20.1484 1.6199 21.4656 0.191406 24.0999 0.191406H36.8421V4.80814H25.148V8.80378H33.6462C36.0476 8.80378 37.2509 10.1184 37.2509 12.7477V18.4746Z" fill="white"/>
<path d="M81.7535 22.7965H76.754V10.3722C76.7152 9.53889 76.2778 9.1119 75.4472 9.09378H72.774V22.7965H67.7745V9.09378H64.9848C64.1904 9.09378 63.8126 9.50007 63.8514 10.3152V22.7965H58.7949V8.6435C58.7949 8.06123 58.8907 7.53072 59.0848 7.0442C59.2788 6.56027 59.5531 6.13845 59.9128 5.78133C60.2699 5.42162 60.6969 5.14213 61.1912 4.93769C61.6855 4.73325 62.2237 4.63232 62.8034 4.63232H77.7736C78.392 4.63232 78.951 4.73843 79.4453 4.95063C79.9395 5.16283 80.3561 5.45009 80.6951 5.80721C81.0341 6.16692 81.2955 6.59133 81.4792 7.08561C81.663 7.57989 81.7561 8.09746 81.7561 8.64091V22.7965H81.7535Z" fill="white"/>
<path d="M107.772 22.7965H102.773V10.3722C102.734 9.53889 102.297 9.1119 101.466 9.09378H98.7903V22.7965H93.7907V9.09378H91.0011C90.2067 9.09378 89.8288 9.50007 89.8677 10.3152V22.7965H84.8086V8.6435C84.8086 8.06123 84.9043 7.53072 85.0984 7.0442C85.2925 6.56027 85.5668 6.13845 85.9265 5.78133C86.2862 5.42162 86.7106 5.14213 87.2049 4.93769C87.6991 4.73325 88.2374 4.63232 88.817 4.63232H103.785C104.406 4.63232 104.962 4.73843 105.456 4.95063C105.951 5.16283 106.367 5.45009 106.706 5.80721C107.045 6.16692 107.307 6.59133 107.49 7.08561C107.674 7.57989 107.767 8.09746 107.767 8.64091V22.7965H107.772Z" fill="white"/>
<path d="M110.824 16.293C110.824 13.2316 112.092 11.6996 114.631 11.6996H121.23V9.82077C121.23 9.19969 120.919 8.89173 120.301 8.89173H111.494V4.60107H122.19C124.902 4.60107 126.258 5.93899 126.258 8.18525V18.3555C126.258 21.4583 124.902 22.7937 122.19 22.7937H114.719C112.141 22.7937 110.842 21.4558 110.824 18.7799V16.293ZM121.23 15.8427C121.23 15.3976 120.986 15.175 120.502 15.175H116.608C116.083 15.175 115.824 15.3898 115.824 15.8142V17.8379C115.824 18.2649 116.085 18.4771 116.608 18.4771H120.502C120.986 18.4771 121.23 18.2649 121.23 17.8379V15.8427Z" fill="white"/>
<path d="M144.758 8.61239V22.7679H139.758V10.3411C139.758 9.48967 139.323 9.06268 138.451 9.06268H135.517C134.761 9.06268 134.383 9.46897 134.383 10.2841V22.7654H129.324V8.6098C129.324 8.02754 129.42 7.49703 129.614 7.01051C129.808 6.52658 130.082 6.10476 130.442 5.74764C130.799 5.38793 131.226 5.10844 131.72 4.904C132.215 4.69956 132.753 4.59863 133.335 4.59863H140.775C141.394 4.59863 141.952 4.70473 142.447 4.91694C142.941 5.12914 143.358 5.41639 143.697 5.77352C144.036 6.13323 144.297 6.55764 144.481 7.05192C144.664 7.55137 144.758 8.06894 144.758 8.61239Z" fill="white"/>
<path d="M151.965 22.6308C149.193 22.6308 147.809 21.3808 147.809 18.881V0H152.837V4.46405H156.819V8.9255H152.837V17.1756C152.837 17.8355 153.088 18.1641 153.592 18.1641H156.788V22.6282H151.965V22.6308Z" fill="white"/>
<path d="M5.39031 7.08008H8.61724V12.4421H14.036V15.6717H8.61724V21.2589H5.39031V15.6717H0V12.4421H5.39031V7.08008Z" fill="white"/>
</svg>

<svg width="157" height="23" fill="none" xmlns="http://www.w3.org/2000/svg"><path d="M55.744 18.783c0 .561-.093 1.087-.277 1.57a3.744 3.744 0 0 1-.784 1.263c-.339.36-.756.645-1.25.857-.494.215-1.05.32-1.672.32h-7.44c-.582 0-1.12-.1-1.614-.305a3.85 3.85 0 0 1-1.279-.843 3.729 3.729 0 0 1-.828-1.266 4.26 4.26 0 0 1-.29-1.599V4.6h5.06v12.51c0 .812.377 1.22 1.133 1.22h2.935c.872 0 1.306-.426 1.306-1.278V4.601h5v14.182ZM37.25 18.475c0 2.88-1.2 4.321-3.604 4.321H20.41v-4.805h11.87v-4.76H24.13c-2.655 0-3.983-1.376-3.983-4.13V4.48c0-2.86 1.318-4.288 3.952-4.288h12.742v4.617H25.148v3.996h8.498c2.402 0 3.605 1.314 3.605 3.944v5.727ZM81.754 22.797h-5V10.372c-.039-.833-.476-1.26-1.307-1.278h-2.673v13.703h-5V9.094h-2.79c-.794 0-1.171.406-1.133 1.221v12.482h-5.056V8.643c0-.582.096-1.112.29-1.599.194-.484.468-.906.828-1.263a3.85 3.85 0 0 1 1.278-.843 4.18 4.18 0 0 1 1.612-.306h14.97c.619 0 1.178.106 1.672.319.495.212.911.5 1.25.856.34.36.6.784.784 1.279.184.494.277 1.011.277 1.555v14.156h-.002ZM107.772 22.797h-4.999V10.372c-.039-.833-.476-1.26-1.307-1.278H98.79v13.703h-5V9.094h-2.789c-.794 0-1.172.406-1.133 1.221v12.482h-5.06V8.643c0-.582.096-1.112.29-1.599.195-.484.469-.906.829-1.263.36-.36.784-.639 1.278-.843a4.179 4.179 0 0 1 1.612-.306h14.968c.621 0 1.177.106 1.671.319.495.212.911.5 1.25.856.339.36.601.784.784 1.279.184.494.277 1.011.277 1.555v14.156h.005ZM110.824 16.293c0-3.061 1.268-4.593 3.807-4.593h6.599V9.82c0-.62-.311-.928-.929-.928h-8.807v-4.29h10.696c2.712 0 4.068 1.337 4.068 3.583v10.17c0 3.103-1.356 4.439-4.068 4.439h-7.471c-2.578 0-3.877-1.338-3.895-4.014v-2.487Zm10.406-.45c0-.445-.244-.668-.728-.668h-3.894c-.525 0-.784.215-.784.64v2.023c0 .427.261.64.784.64h3.894c.484 0 .728-.213.728-.64v-1.995ZM144.758 8.612v14.156h-5V10.34c0-.851-.435-1.278-1.307-1.278h-2.934c-.756 0-1.134.406-1.134 1.221v12.481h-5.059V8.61c0-.582.096-1.113.29-1.6.194-.483.468-.905.828-1.262a3.85 3.85 0 0 1 1.278-.844 4.188 4.188 0 0 1 1.615-.305h7.44c.619 0 1.177.106 1.672.318.494.212.911.5 1.25.857.339.36.6.784.784 1.278.183.5.277 1.017.277 1.56ZM151.965 22.63c-2.772 0-4.156-1.25-4.156-3.749V0h5.028v4.464h3.982v4.461h-3.982v8.25c0 .66.251.99.755.99h3.196v4.463h-4.823v.003ZM5.39 7.08h3.227v5.362h5.419v3.23H8.617v5.587H5.39v-5.587H0v-3.23h5.39V7.08Z" fill="#fff"/></svg>
